OBS Studio/Fluent Dark Grey/arrows/up.svg

<svg width="24" height="24" fill="none" viewBox="0 0 24 24" xmlns="http://www.w3.org/2000/svg"><path d="m4.2929 15.707c0.39053 0.3905 1.0237 0.3905 1.4142 0l6.2929-6.2929 6.2929 6.2929c0.3905 0.3905 1.0237 0.3905 1.4142 0s0.3905-1.0237 0-1.4142l-7-7c-0.3905-0.39052-1.0237-0.39052-1.4142 0l-7 7c-0.39052 0.3905-0.39052 1.0237 0 1.4142z" fill="#fff"/></svg>

<svg width="24" height="24" viewBox="0 0 24 24" fill="none" xmlns="http://www.w3.org/2000/svg">
<path d="M4.29289 15.7071C4.68342 16.0976 5.31658 16.0976 5.70711 15.7071L12 9.41421L18.2929 15.7071C18.6834 16.0976 19.3166 16.0976 19.7071 15.7071C20.0976 15.3166 20.0976 14.6834 19.7071 14.2929L12.7071 7.29289C12.3166 6.90237 11.6834 6.90237 11.2929 7.29289L4.29289 14.2929C3.90237 14.6834 3.90237 15.3166 4.29289 15.7071Z" fill="white"/>
</svg>
